X:1
T: Young Francis Mooney
C:
R:Jig
Q:180
K:Em
M:6/8
L:1/16
D2|:E2F2E2 G4A2|B2A2B2 d4A2|F2D2D2 D2E2D2|F2A2G2 F2E2D2|
E2F2E2 G4A2|B2A2B2 d4e2|f2e2d2 e2f2g2|f2e2e2 e4D2:|
|:e2f2e2 f2d2B2|e2f2e2 f2d2B2|d2e2d2 d2A2F2|d2^c2d2 B2c2d2|
e2f2e2 f2d2B2|e2d2e2 g4a2|b2a2g2 f2a2f2|1g2e2e2 e4B2:|2g2e2e2 e4||
